static/assets/images/icons/radyal.svg

<svg width="257" height="256" viewBox="0 0 257 256" fill="none" xmlns="http://www.w3.org/2000/svg">
<path d="M226.058 128.026C226.058 153.749 215.84 178.418 197.651 196.607C179.462 214.796 154.793 225.014 129.07 225.014C103.347 225.014 78.678 214.796 60.4892 196.607C42.3004 178.418 32.082 153.749 32.082 128.026C32.082 102.303 42.3004 77.6341 60.4892 59.4453C78.678 41.2565 103.347 31.0381 129.07 31.0381C154.793 31.0381 179.462 41.2565 197.651 59.4453C215.84 77.6341 226.058 102.303 226.058 128.026ZM98.4376 43.5284C124.805 37.1811 152.177 43.2063 173.265 60.0132C200.218 81.4941 212.009 116.86 203.199 150.253C191.113 196.027 144.891 223.31 99.0424 212.669C98.1181 212.455 98.1024 212.506 98.9953 212.823C135.983 225.992 177.735 213.4 201.145 181.86C229.106 144.189 223.823 91.502 188.316 60.3784C163.446 38.5794 129.632 32.4756 98.4062 43.4262C98.3747 43.4367 98.3643 43.4577 98.3747 43.4891V43.493C98.3852 43.5244 98.4062 43.5362 98.4376 43.5284ZM91.7172 203.141C91.8507 203.232 91.9515 203.29 92.0196 203.313C133.167 217.885 177.578 197.402 193.564 157.147C202.264 135.234 200.489 109.931 189.094 89.3614C169.817 54.5654 128.399 39.4238 91.1477 53.0924C91.1293 53.1003 91.1189 53.0938 91.1162 53.0728C91.0743 52.7324 91.077 52.7468 91.1241 53.116C91.1251 53.1216 91.1272 53.1269 91.1302 53.1316C91.1332 53.1363 91.1371 53.1403 91.1416 53.1433C91.1461 53.1463 91.151 53.1482 91.1561 53.1489C91.1613 53.1496 91.1664 53.1491 91.1712 53.1474C104.19 50.1021 116.923 50.2985 129.369 53.7366C182.248 68.34 203.352 131.573 170.025 175.1C163.332 183.84 154.165 191.518 144.149 196.573C127.474 204.987 109.835 207.119 91.2301 202.972C91.2279 202.972 91.2258 202.973 91.2241 202.974C91.2223 202.975 91.2209 202.977 91.2201 202.979C91.2193 202.981 91.219 202.983 91.2194 202.986C91.2198 202.988 91.2208 202.99 91.2223 202.991C91.2642 203.023 91.327 203.04 91.4108 203.042C91.5208 203.045 91.6229 203.078 91.7172 203.141ZM79.6629 191.53C109.302 205.191 144.64 196.664 164.585 170.642C184.569 144.566 183.855 107.802 162.307 82.6488C141.996 58.937 108.5 51.2818 79.8946 64.4201C79.8554 64.4384 79.8436 64.4672 79.8593 64.5065C79.875 64.5484 79.9038 64.5615 79.9457 64.5458C81.8912 63.8519 83.8735 63.2732 85.8923 62.8097C108.991 57.5072 133.135 64.4594 149.502 81.5176C172.268 105.253 174.687 142.072 154.762 168.38C138.112 190.372 110.566 199.562 83.8774 192.752C82.6166 192.43 81.0847 191.888 79.6943 191.448C79.2623 191.312 79.2518 191.339 79.6629 191.53ZM69.5057 166.817C47.4356 142.826 49.5448 105.261 74.8357 84.2356C88.3 73.0415 105.908 68.6542 123.147 72.2835C123.179 72.2913 123.199 72.2795 123.21 72.2481V72.2442C123.218 72.2128 123.207 72.1918 123.179 72.1813C99.7691 62.9983 73.1114 69.4908 56.5205 88.1005C42.4238 103.914 37.6634 126.227 44.1677 146.408C54.8238 179.464 90.8766 196.255 123.202 183.891C123.239 183.878 123.252 183.854 123.241 183.82L123.237 183.816C123.227 183.779 123.205 183.765 123.171 183.773C103.422 187.87 82.9897 181.479 69.5057 166.817ZM130.394 174.166C130.425 174.166 130.457 174.166 130.488 174.166C130.496 174.166 130.499 174.16 130.496 174.15C130.496 174.147 130.496 174.145 130.496 174.142C130.496 174.132 130.491 174.126 130.48 174.126C98.9992 180.112 70.8215 154.307 74.6039 122.374C77.7933 95.4887 103.791 76.3644 130.386 81.9261C130.396 81.9287 130.402 81.9235 130.402 81.9104C130.402 81.8947 130.402 81.8777 130.402 81.8593C130.402 81.8567 130.387 81.8489 130.358 81.8358C121.416 78.1934 112.305 77.1513 103.025 78.7093C73.4727 83.674 54.6863 113.627 63.4138 142.496C71.4382 169.032 99.231 183.635 125.739 175.89C127.303 175.434 128.825 174.866 130.307 174.185C130.336 174.172 130.365 174.166 130.394 174.166ZM137.295 164.66C137.36 164.653 137.404 164.628 137.425 164.586C137.451 164.533 137.435 164.512 137.377 164.523C115.268 168.176 95.1304 151.636 94.282 129.354C93.4061 106.4 114.015 87.7942 136.729 91.4706C137.635 91.6172 137.664 91.5151 136.816 91.1642C118.214 83.4933 96.8547 90.4336 86.6661 107.979C76.615 125.3 81.0298 147.421 96.7958 159.649C108.214 168.502 123.779 170.56 137.157 164.696C137.191 164.683 137.237 164.671 137.295 164.66ZM161.262 128.026C161.262 124.088 160.486 120.187 158.979 116.549C157.472 112.91 155.263 109.603 152.478 106.818C149.692 104.033 146.386 101.824 142.747 100.317C139.108 98.8096 135.208 98.0339 131.27 98.0339C123.315 98.0339 115.687 101.194 110.062 106.818C104.437 112.443 101.277 120.072 101.277 128.026C101.277 135.981 104.437 143.609 110.062 149.234C115.687 154.859 123.315 158.019 131.27 158.019C135.208 158.019 139.108 157.243 142.747 155.736C146.386 154.228 149.692 152.019 152.478 149.234C155.263 146.449 157.472 143.143 158.979 139.504C160.486 135.865 161.262 131.965 161.262 128.026Z" fill="url(#paint0_radial_7881_771)"/>
<defs>
<radialGradient id="paint0_radial_7881_771" cx="0" cy="0" r="1" gradientUnits="userSpaceOnUse" gradientTransform="translate(134.753 117.039) rotate(1.20118) scale(58.7362)">
<stop stop-color="#1543D8"/>
<stop offset="1" stop-color="#477BFF"/>
</radialGradient>
</defs>
</svg>

<svg xmlns="http://www.w3.org/2000/svg" fill="none" viewBox="0 0 257 256"><path fill="url(#paint0_radial_7881_771)" d="M226.058 128.026a96.987 96.987 0 1 1-193.975.001 96.987 96.987 0 0 1 193.975-.001M98.438 43.528c26.367-6.347 53.739-.322 74.827 16.485 26.953 21.481 38.744 56.847 29.934 90.24-12.086 45.774-58.308 73.057-104.157 62.416q-1.386-.321-.047.154c36.988 13.169 78.74.577 102.15-30.963 27.961-37.671 22.678-90.358-12.829-121.482-24.87-21.799-58.684-27.902-89.91-16.952q-.047.016-.031.063v.004q.015.047.063.035m-6.72 159.613q.199.137.302.172c41.147 14.572 85.558-5.911 101.544-46.166 8.7-21.913 6.925-47.216-4.47-67.786-19.277-34.796-60.695-49.937-97.946-36.269q-.029.013-.032-.02-.063-.51.008.044l.006.016.012.011q.006.005.014.006.008 0 .015-.002 19.529-4.568 38.198.59c52.879 14.603 73.983 77.836 40.656 121.363-6.693 8.74-15.86 16.418-25.876 21.473q-25.012 12.62-52.919 6.399l-.006.002-.004.005v.007q0 .003.002.005a.32.32 0 0 0 .189.051.57.57 0 0 1 .306.099M79.662 191.53c29.639 13.661 64.977 5.134 84.922-20.888 19.984-26.076 19.27-62.84-2.278-87.993-20.31-23.712-53.806-31.367-82.411-18.229q-.06.027-.036.087.024.061.087.039a53 53 0 0 1 5.946-1.736c23.099-5.303 47.243 1.65 63.61 18.708 22.766 23.735 25.185 60.554 5.26 86.862-16.65 21.992-44.196 31.182-70.885 24.372-1.26-.322-2.792-.864-4.183-1.304q-.648-.204-.031.082m-10.157-24.713c-22.07-23.991-19.961-61.556 5.33-82.581C88.3 73.04 105.908 68.654 123.147 72.284q.047.01.063-.036v-.004q.012-.047-.031-.063c-23.41-9.183-50.068-2.69-66.658 15.92-14.097 15.813-18.858 38.126-12.353 58.307 10.656 33.056 46.709 49.847 79.034 37.483q.055-.02.039-.071l-.004-.004q-.015-.055-.066-.043c-19.749 4.097-40.181-2.294-53.665-16.956m60.888 7.349h.094q.012 0 .008-.016v-.008q0-.015-.016-.016c-31.48 5.986-59.658-19.819-55.876-51.752 3.19-26.885 29.187-46.01 55.782-40.448q.016.005.016-.016v-.05q0-.004-.044-.024-13.413-5.464-27.333-3.127c-29.552 4.965-48.339 34.918-39.611 63.787 8.024 26.536 35.817 41.139 62.325 33.394a33 33 0 0 0 4.568-1.705.2.2 0 0 1 .087-.019m6.901-9.506q.098-.01.13-.074.039-.08-.048-.063c-22.109 3.653-42.247-12.887-43.095-35.169-.876-22.954 19.733-41.56 42.447-37.883q1.359.22.087-.307c-18.602-7.67-39.961-.73-50.15 16.815-10.051 17.321-5.636 39.442 10.13 51.67 11.418 8.853 26.983 10.911 40.361 5.047a1 1 0 0 1 .138-.036m23.967-36.634a29.994 29.994 0 0 0-59.985 0 29.991 29.991 0 1 0 59.985 0"/><defs><radialGradient id="paint0_radial_7881_771" cx="0" cy="0" r="1" gradientTransform="rotate(1.201 -5515.13 6485.945)scale(58.7362)" gradientUnits="userSpaceOnUse"><stop stop-color="#1543D8"/><stop offset="1" stop-color="#477BFF"/></radialGradient></defs></svg>
